X:143
T:Lucy Farr's Barn Dance
M:4/4
L:1/8
K:D
(3ABc | d2 d2 d2 d2 | d>ef>d (3BcB A2 | f2 f2 f2 f2 | f>ga>f e4 | 
f>ga>f d2 d2 | d>ef>d (3BcB A2 | A>Bd>e f>aa>f | e2 d2 d4 :|| 
f>ga>f d2 d2 | d>ef>d (3BcB A2 | A>Bd>e f>aa>f | f2 e2 e4 | 
f>ga>f d2 d2 | d>ef>d (3BcB A2 | A>Bd>e f>aa>f | e2 d2 d4 :|| 

